!!!OTL: WO MAG DENN WOHL MEIN CHRISTIAN SIN
!!!ARE: Europa, Mitteleuropa, Deutschland, Brandenburg
!!!SCT: E1028
!!!YEM: Copyright 1995, estate of Helmut Schaffrath.
**kern
*ICvox
*Ivox
*M2/4
*k[f#]
*G:
{8b
=1
8dd
8b
8b
8b
=2
8dd
8b
8b}
{8b
=3
8cc
8a
8a
8a
=4
4cc
8b}
{8b
=5
8dd
8b
8b
8b
=6
8dd
8b
8b}
{8b
=7
8a
8b
8cc
8a
=8
4a
8g
8r}
=9
{8a
16a
16b
8a
16a
16b
=10
8a
16a
16b
8a}
{8a
=11
8a
8b
8a
8g
=12
8f#
8e
8d}
{8b
=13
8dd
8b
8b
8b
=14
8dd
8b
8b}
{8b
=15
8a
8b
8cc
8f#
=16
4g
4r}
=17
{8.a
16b
8.a
16b
=18
8.a
16b
4a}
=19
{8a
8b
8a
8g
=20
8f#
8e
4d}
=21
{4dd
4b
=22
4dd
4b}
=23
{8a
8b
8cc
8f#
=24
4g
8r}
==
!!!AGN: Tanz - Lied, Kirmes
!!!ONB: ESAC (Essen Associative Code) Database: ERK3
!!!AMT: simple duple
!!!AIN: vox
!!!EED: Helmut Schaffrath
!!!EEV: 1.0
*-
